X:139
T:Turkey In the Straw
S:American Veteran Fifer #139
M:C|
L:1/8
Q:1/4=180
K:G 
%%MIDI program 72
%%MIDI transpose 8
%%MIDI ratio 3 1
BA|GG z G G2 Bc|dd z d d2 GA|BB z B BAGA|BA z ^G A2 BA|
GG z G G2 Bc|dd z d d2 GA|BAGA dBGA|BGAF G2:|
|:d2|Bd z d d4|cd z d d2 d2|ce z e e4|ce z c e2 d2|
g2 g2 d2 d2|B2 B2 A2 GA|BABc dBGA|BGAF G2:|


